X:1
T:Rio Hondo, 86.86.88.88
T:Rio Hondo, 86.86.88.88
T:Anonymous, 1916
T:Public Domain Courtesy of the Cyber Hymnal™
C:Anonymous, 1916
Z:Public Domain
Z:Courtesy of the Cyber Hymnal™
%%score ( 1 2 ) ( 3 4 )
L:1/8
Q:1/4=110
M:4/4
K:G
V:1 treble 
V:2 treble 
V:3 bass 
V:4 bass 
V:1
 [Gd]2 | [Gd]2 [GB]2 [DG]2 [Ec]2 | [DB]3 [CA] [B,G]2 (GF) | [CE]2 [Ec]2 [DB]2 [CA]2 | %4
 [B,G]6 [B,D]2 | [B,D]2 [B,D]2 [B,D]2 [B,D]2 | [GB]3 [FA] G2 [=Fd]2 | [Ed]3 [Ec] [DB]2 [CA]2 | %8
 [B,G]6 z2 | z D[DG][GB] [Gd]3 [GB] | [Fc]2 [FA]2 [GB]2 z2 | z D[DG][GB] [Gd]3 [Gd] | %12
 (ed) (cA) !fermata!G2 G2 | !fermata![Gd]2 G2 !fermata![Ge]2 z2 | z D[DG][GB] [Gd]3 [Gd] | %15
 (ed) (cA) G4 |[Q:1/4=97] [GB]2 [GB]2 [GB]2 |] %17
V:2
 x2 | x8 | x6 D2 | x8 | x8 | x8 | x4 G2 x2 | x8 | x8 | x D x6 | x8 | x D x6 | F2 F2 G2 G2 | %13
 x2 G2 x4 | x D x6 | F2 F2 G4 | x6 |] %17
V:3
 [G,B,]2 | [G,B,]2 [G,D]2 [G,B,]2 [C,G,]2 | [D,G,]3 [D,F,] [G,,G,]2 [B,,G,]2 | %3
 [C,G,]2 [A,,G,]2 [D,G,]2 [D,F,]2 | [G,,G,]6 G,2 | G,2 G,2 G,2 G,2 | %6
 [G,D]3 [G,C] [G,B,]2 [B,,G,]2 | [C,G,]3 [C,G,] [D,G,]2 [D,F,]2 | ([G,,G,]6 D,2) | %9
 [G,,B,]2 [G,,B,]2 [G,,B,]3 [G,,B,] | [D,A,]2 [D,C]2 [G,,B,]2 D,2 | %11
 [G,,B,]2 [G,,B,]2 [G,,B,]3 [G,,B,] | [D,A,]2 [D,C]2 !fermata![G,,B,]2!ff! [G,,G,]2 | %13
 !fermata![G,,B,]2 G,2 !fermata![E,C]2 D,2 | [G,,B,]2 [G,,B,]2 [G,,B,]3 [G,,B,] | %15
 [D,A,]2 [D,C]2 [G,,B,]4 | [G,,D]2 [G,,D]2 [G,,D]2 |] %17
V:4
 x2 | x8 | x8 | x8 | x6 G,2 | G,2 G,2 G,2 G,2 | x8 | x8 | x6 D,2 | x8 | x6 D,2 | x8 | x8 | %13
 x2 G,2 D,2 x2 | x8 | x8 | x6 |] %17

